X:1
T:La Complainte De Springhill
M:3/4
L:1/8
K:C
 EAA| A3 AB c| G3 G A3/2 B/2| c3 B A3/2 G/2| A3 EA A| A3| ABc| G3 GA B|\
 c3 BA G| A3 Ac B| A3 ce e| d2- B| Bdd| e2- BB Ac| B3 AA G| E3 EA B|\
 c B2 AA G| E3| A B3/2 G/2| A3||

